X: 28137
T: Mrs Crotty's
R: hornpipe
M: 4/4
K: Dmajor
|:fg|a2 fa g2 eg|f2 df e2 ce|d2 cd ef ge|f2 df e2 fg|
a2 fa g2 eg|f2 df e2 ce|d2 cd ef ge|f2 d2 d2:|
|:fe|dB BA B3B|AG FG AB cA|d2 cd ef ge|f2 df e2 fe|
dB BA B3B|AG FG AB cA|d2 cd ef ge|f2 d2 d2:|

